X:15017
T:Old Lancashire Hornpipe
R:Triple Hornpipe
C:Trad.
O:England
M:3/2
L:1/8
Q:1/2=100
K:D
%%MIDI beatstring fppmpp
%%MIDI gchord czfczf
"G"B2 A2 G2|"D"F3 E D2 f2 e2 d2|"Em"e2 E4 B2 A2 G2|"D"F3 E D2 f2 "Em"e2 dc|"D"d2 D4:|
|:"G"B2 A2 G2|\
%%MIDI beatstring fpmpmp
%%MIDI gchord czczcz
"D"F2 A2 "G"G2 B2 "A"A2 d2|\
%%MIDI beatstring fppmpp
%%MIDI gchord czfczf
"Em"e2 E4 "G"B2 A2 G2|\
%%MIDI beatstring fpmpmp
%%MIDI gchord czczcz
"D"F2 A2 "G"G2 B2 "A"A2 c2|\
%%MIDI beatstring fppmpp
%%MIDI gchord czfczf
"D"d2 D4:|
%%MIDI beatstring fppmpp
%%MIDI gchord czfczf
|:"G"f2 g2 a2|"D"f3 e d2 f2 e2 d2|"A"c2 e4 f2 g2 a2|"D"f3 e d2 f2 "Em"e2 dc|"D"d6:|

